!!!ONB: MCCC : IJH0435_02 : Extracted Monophonic Melody
!!!COM: Haydn, Joseph
!!!OPR: String Quartet, Hob.III:43
!!!OMV: 2
!!!SCT: Hob.III:43 ; Op.42
!!!ODT: 1785///
**kern
*thru
*k[f#c#]
*D:
*clefG
*M3/4
8dd
8r
8cc#
8r
8dd
8r
=1
8dd#
8ee
8ff#
8gg
8gg#
8aa
=2
8bb
8r
8ccc#
8r
8ddd
8r
=3
8ddd
8ccc#
8bb
8aa
8gg#
8aa
=4
2bb
8ccc
8bb
=5
2aa
8bb
8aa
=6
8aa
8gg
8ff#
8ee
8dd#
8ee
=7
2dd
4cc#
=8
8aa
8r
8gg#
8r
8aa
8r
=9
2.bb
=10
8ccc#
8r
8bb
8r
8ccc#
8r
=11
8ddd
8eee
8fff#
8eee
8ddd
8ccc#
=12
8bb
8aa
8gg#
8ff#
8ee
8dd
=13
4cc#
2r
=14
2.r
=15
8dd
8r
8cc#
8r
8dd
8r
=16
8dd#
8ee
8ff#
8gg
8gg#
8aa
=17
8bb
8r
8ccc#
8r
8ddd
8r
=18
8ddd
8ccc#
8bb
8aa
8gg#
8aa
=19
2bb
8ccc
8bb
=20
2aa
8bb
8aa
=21
8aa
8gg
8ff#
8ee
8dd
8cc#
=22
2.cc#
=23
4dd
2r
=24
2.r
=25
8ff#
8gg
8aa
8bb
8ccc#
8ddd
=26
8eee
8fff#
8ggg
8aaa
8bbb
8cccc#
=27
4dddd
2r
=28
*d:
4aa
4aa
4aa
=29
4aa
8aa
8bb-
4aa
=30
4gg
4gg
4gg
=31
4ff
2r
=32
4g
4g
4g
=33
4g
8g
8a
4g
=34
4f
4g
4e
=35
4f
2r
=36
4ccc
4ccc
4ccc
=37
4ccc
8ccc
8ddd
4ccc
=38
4ee
4ee
4ee
=39
4ff
8ff
8ee
4ff
=40
4cc#
4cc#
4cc#
=41
4cc#
8cc#
8dd
4cc#
=42
4dd
4f
4e
=43
4d
2r
==
*-
